svgs/duotone/credit-card-front.svg

<svg xmlns="http://www.w3.org/2000/svg" viewBox="0 0 576 512"><!--! Font Awesome Pro 6.6.0 by @fontawesome - https://fontawesome.com License - https://fontawesome.com/license (Commercial License) Copyright 2024 Fonticons, Inc. --><defs><style>.fa-secondary{opacity:.4}</style></defs><path class="fa-secondary" d="M96 304c0 8.8 7.2 16 16 16l352 0c8.8 0 16-7.2 16-16s-7.2-16-16-16l-352 0c-8.8 0-16 7.2-16 16zm0 64c0 8.8 7.2 16 16 16l64 0c8.8 0 16-7.2 16-16s-7.2-16-16-16l-64 0c-8.8 0-16 7.2-16 16zm128 0c0 8.8 7.2 16 16 16l128 0c8.8 0 16-7.2 16-16s-7.2-16-16-16l-128 0c-8.8 0-16 7.2-16 16z"/><path class="fa-primary" d="M0 96C0 60.7 28.7 32 64 32l448 0c35.3 0 64 28.7 64 64l0 320c0 35.3-28.7 64-64 64L64 480c-35.3 0-64-28.7-64-64L0 96zM112 288c-8.8 0-16 7.2-16 16s7.2 16 16 16l352 0c8.8 0 16-7.2 16-16s-7.2-16-16-16l-352 0zM96 368c0 8.8 7.2 16 16 16l64 0c8.8 0 16-7.2 16-16s-7.2-16-16-16l-64 0c-8.8 0-16 7.2-16 16zm128 0c0 8.8 7.2 16 16 16l128 0c8.8 0 16-7.2 16-16s-7.2-16-16-16l-128 0c-8.8 0-16 7.2-16 16zM408 96c-13.3 0-24 10.7-24 24l0 48c0 13.3 10.7 24 24 24l80 0c13.3 0 24-10.7 24-24l0-48c0-13.3-10.7-24-24-24l-80 0z"/></svg>

<svg xmlns="http://www.w3.org/2000/svg" viewBox="0 0 576 512"><!--! Font Awesome Pro 6.4.0 by @fontawesome - https://fontawesome.com License - https://fontawesome.com/license (Commercial License) Copyright 2023 Fonticons, Inc. --><defs><style>.fa-secondary{opacity:.4}</style></defs><path class="fa-primary" d="M0 96C0 60.7 28.7 32 64 32H512c35.3 0 64 28.7 64 64V416c0 35.3-28.7 64-64 64H64c-35.3 0-64-28.7-64-64V96zM112 288c-8.8 0-16 7.2-16 16s7.2 16 16 16H464c8.8 0 16-7.2 16-16s-7.2-16-16-16H112zM96 368c0 8.8 7.2 16 16 16h64c8.8 0 16-7.2 16-16s-7.2-16-16-16H112c-8.8 0-16 7.2-16 16zm128 0c0 8.8 7.2 16 16 16H368c8.8 0 16-7.2 16-16s-7.2-16-16-16H240c-8.8 0-16 7.2-16 16zM408 96c-13.3 0-24 10.7-24 24v48c0 13.3 10.7 24 24 24h80c13.3 0 24-10.7 24-24V120c0-13.3-10.7-24-24-24H408z"/><path class="fa-secondary" d="M112 288c-8.8 0-16 7.2-16 16s7.2 16 16 16H464c8.8 0 16-7.2 16-16s-7.2-16-16-16H112zM96 368c0 8.8 7.2 16 16 16h64c8.8 0 16-7.2 16-16s-7.2-16-16-16H112c-8.8 0-16 7.2-16 16zm128 0c0 8.8 7.2 16 16 16H368c8.8 0 16-7.2 16-16s-7.2-16-16-16H240c-8.8 0-16 7.2-16 16z"/></svg>
